Sources/Icon/Icons.xcassets/BrandLogos/blocket.imageset/blocket.svg

<svg width="151" height="33" viewBox="0 0 151 33" fill="none" xmlns="http://www.w3.org/2000/svg">
<path fill-rule="evenodd" clip-rule="evenodd" d="M26.1901 31.6287H34.9351V0.0733473H26.1901V31.6287Z" fill="#F71414"/>
<path fill-rule="evenodd" clip-rule="evenodd" d="M49.9261 14.9177C47.3383 14.9177 46.2676 16.9179 46.2676 19.4953C46.2676 22.0732 47.3383 24.1618 49.9261 24.1618C52.514 24.1618 53.5847 22.0732 53.5847 19.4953C53.5847 16.9179 52.514 14.9177 49.9261 14.9177ZM49.9261 32.0732C41.6273 32.0732 37.2548 27.762 37.2548 19.4953C37.2548 11.229 41.6273 7.00693 49.9261 7.00693C58.225 7.00693 62.5975 11.229 62.5975 19.4953C62.5975 27.762 58.225 32.0732 49.9261 32.0732Z" fill="#F71414"/>
<path fill-rule="evenodd" clip-rule="evenodd" d="M83.5676 22.9175V30.8287C81.6933 31.6287 79.2844 32.0731 77.4105 32.0731C69.2898 32.0731 64.5606 27.584 64.5606 19.4956C64.5606 11.4065 69.2898 7.00678 77.4105 7.00678C79.2844 7.00678 81.6933 7.4508 83.5676 8.25114V16.1624C82.0058 15.4511 80.0427 14.9178 78.4811 14.9178C75.358 14.9178 73.5734 16.6068 73.5734 19.4956C73.5734 22.3846 75.358 24.1619 78.4811 24.1619C80.0427 24.1619 82.0058 23.6289 83.5676 22.9175Z" fill="#F71414"/>
<path fill-rule="evenodd" clip-rule="evenodd" d="M102.931 18.0286L111.542 31.6286H101.147L94.8108 20.8288V31.6286H86.0662V0.0733284H94.8108V15.3622L100.879 7.45077H111.542L102.931 18.0286Z" fill="#F71414"/>
<path fill-rule="evenodd" clip-rule="evenodd" d="M124.526 16.5624C124.526 14.6953 123.589 13.3177 121.537 13.3177C119.484 13.3177 118.547 14.6953 118.547 16.5624H124.526ZM132.914 21.4513H118.547C118.815 23.9398 121.224 24.9618 124.481 24.9618C127.024 24.9618 130.37 24.2957 132.914 23.2286V30.2062C129.88 31.5397 126.355 32.0732 122.964 32.0732C113.862 32.0732 109.624 27.762 109.624 19.4953C109.624 11.3175 114.13 7.00693 121.804 7.00693C129.032 7.00693 132.914 11.762 132.914 18.9624V21.4513Z" fill="#F71414"/>
<path fill-rule="evenodd" clip-rule="evenodd" d="M143.8 15.1843V19.2289C143.8 22.7841 146.12 23.9843 149.6 23.9843H150.046V31.7177C149.243 31.8512 148.351 31.9401 147.548 31.9401C139.339 31.9401 135.055 27.5841 135.055 19.4068V1.2291H143.8V7.4509H150.046V15.1843H143.8Z" fill="#F71414"/>
<path fill-rule="evenodd" clip-rule="evenodd" d="M10.262 14.74C9.77131 14.74 9.14681 14.8285 8.74498 14.9175V24.0735H10.3513C13.296 24.0735 14.8578 22.251 14.8578 19.3176C14.8578 16.3843 13.2067 14.74 10.262 14.74ZM10.7529 31.6286H0V0.0732422H8.74498V7.31761C9.59255 7.14016 10.6634 7.00667 11.6005 7.00667C19.2746 7.00667 23.8699 11.2288 23.8699 19.3176C23.8699 27.4954 18.9622 31.6286 10.7529 31.6286Z" fill="#F71414"/>
</svg>

<svg width="151" height="32" viewBox="0 0 151 32" fill="none" xmlns="http://www.w3.org/2000/svg">
  <path fill-rule="evenodd" clip-rule="evenodd" d="M26.19 31.555h8.745V0H26.19v31.555ZM49.926 14.845c-2.588 0-3.658 2-3.658 4.577 0 2.578 1.07 4.667 3.658 4.667s3.659-2.09 3.659-4.667-1.071-4.578-3.659-4.578Zm0 17.155c-8.299 0-12.671-4.311-12.671-12.578 0-8.266 4.372-12.488 12.671-12.488s12.671 4.222 12.671 12.488C62.597 27.69 58.225 32 49.927 32ZM83.568 22.844v7.912c-1.875.8-4.284 1.244-6.157 1.244-8.121 0-12.85-4.49-12.85-12.578 0-8.089 4.729-12.488 12.85-12.488 1.873 0 4.282.444 6.157 1.244v7.911c-1.562-.711-3.525-1.244-5.087-1.244-3.123 0-4.908 1.688-4.908 4.577 0 2.89 1.785 4.667 4.908 4.667 1.562 0 3.525-.533 5.087-1.245ZM102.931 17.955l8.611 13.6h-10.395l-6.336-10.8v10.8h-8.745V0h8.745V15.29l6.068-7.911h10.663l-8.611 10.577Z" fill="#F71414"/>
  <path fill-rule="evenodd" clip-rule="evenodd" d="M124.526 16.49c0-1.868-.937-3.246-2.989-3.246-2.053 0-2.99 1.378-2.99 3.245h5.979Zm8.388 4.888h-14.367c.268 2.489 2.677 3.51 5.934 3.51 2.543 0 5.889-.666 8.433-1.733v6.978c-3.034 1.333-6.559 1.867-9.95 1.867-9.102 0-13.34-4.311-13.34-12.578 0-8.178 4.506-12.488 12.18-12.488 7.228 0 11.11 4.755 11.11 11.955v2.49ZM143.8 15.111v4.045c0 3.555 2.32 4.755 5.8 4.755h.446v7.733c-.803.134-1.695.223-2.498.223-8.209 0-12.493-4.356-12.493-12.534V1.157h8.745v6.222h6.246v7.733H143.8ZM10.262 14.667c-.49 0-1.115.088-1.517.177V24h1.606c2.945 0 4.507-1.822 4.507-4.756 0-2.933-1.651-4.577-4.596-4.577Zm.49 16.888H0V0h8.745v7.244a14.81 14.81 0 0 1 2.856-.31c7.674 0 12.269 4.221 12.269 12.31 0 8.178-4.908 12.311-13.117 12.311Z" fill="#F71414"/>
</svg>
